X:1
T:3 Lieder, Op.4
T:Möcht' im Walde mit dir geh'n
T:3. Möcht' im Walde mit dir geh'n
T:Peter Cornelius
T:Peter Cornelius
T:3 Lieder, Op.4
T:Creative Commons copyright waiver (CC0 1.0 Universal)
T:Creative Commons copyright waiver (CC0 1.0 Universal)
T:Creative Commons copyright waiver (CC0 1.0 Universal)
C:Peter Cornelius
Z:Peter Cornelius
Z:Creative Commons copyright waiver (CC0 1.0 Universal)
L:1/8
M:3/4
K:Bb
V:1 treble nm="Voice" snm="Vo."
V:1
 z2 | z6 | z2 z2 d>d | g2 d2 Bc | d4 BB | e3 e ce | B>c B2 z2 | z2 c2 c2 | c3 A =Bc | d4 =BB | %10
w: ||Möcht' im|Wal- de mit dir|geh'n, wo im|Laub sich Vög- lein|wie- * gen,|möcht' im|Wal- de mit dir|geh'n, denn der|
 =e6- | e3 d dc | =B6 | d4 z2 | z2 z2 =B>B | =e3 =B e>B | =e4 ed | c3 A c=e | d2 A2 z2 | %19
w: Wald|* ist so ver-|schwie-|gen.|Wo der|Lärm der Stadt ver-|hallt, blüh'n so|schön die wil- den|Ro- sen,|
 z2 z2 d>d | g2 d2 Bc | d4 BB | e3 e ce | B>c B2 z2 | z2 c2 c2 | c3 A =Bc | d4 =BB | =e6- | %28
w: so ver-|schwie- gen ist der|Wald, so ge-|heim der Quel- le|Ko- * sen,|so ver-|schwie- gen ist der|Wald, so ge-|heim|
 e3 d dc | =B6 | d4 z2 | z2 =e2 =B2 | z2 =B>B =e>B | =e4 z2 | z6 | z2 d2 A2 | z2 AA d>A | d6 | %38
w: * der Quel- le|Ko-|sen.|Lieb- lich|dort am vol- len|Strauch,||Blü- ten|sich an Blü- ten|schmie-|
 B2 z2 BB | B3 c dA | B2 z2 z2 | z2 B2 B2 | B3 e cd | f2 e7/2 d/ | d4 z2 | z2 z2 d>d | g3 d Bc | %47
w: gen, an den|Stamm der E- pheu|auch,|und der|Wald ist so ver-|schwie * *|gen.|Wo das|Reh ent- flieht als-|
 d4 BB | e3 e ce | B>c B2 z2 | z2 c2 c2 | c3 A =Bc | d4 =BB | e6- | e3 d dc | =B6 | d4 z2 | %57
w: bald, hört's ein|Rau- schen in den|Zwei- * gen,|so ver-|schwie- gen ist der|Wald, so be-|red-|* sam ist sein|Schwei-|gen!|
 z2 z2 =BB | =e3 f ed | c4 z2 | z2 c2 c2 | a3 g ^f=e | =e2 d z z2 | z2 z2 BB | B2- Bc dA | %65
w: Wenn mein|Lied zu En- de|geht,|sing' ich's|wei- ter in Ge-|dan- ken:|Wie's im|Wald * ver- schwie- gen|
 B2- B z z2 | z6 | z2 z2 BB | B3 e cd | f2 e7/2 d/ | d2 z2 z2 |] %71
w: weht, *||wie die|Ro- sen sich um-|ran- * *|ken!|

